X: 7500
T: Coalyard, The
R: hornpipe
M: 4/4
K: Gmajor
|:GE|DG G/F/G Bd d/^c/d|bgaf gedg|e/g/e dB cBAc|BcAF GFEF|
DG G/F/G Bd d/^c/d|bgaf gedB|e/g/e dB cBAF|DGGF G2:|
|:ga|bgaf gedg|e/f/g dB cBAa|bgaf gedg|egfa g2 ga|
bgaf gedg|e/f/g dB cBAB|DG G/F/G Bd d/^c/d|ecAF G2:|

